_inc/images/systems/logos/easyrpg.svg

<svg viewBox="0 0 264 66" xmlns="http://www.w3.org/2000/svg">
    <path d="M23.393 45.364c-4.943 0-9.165-1.023-12.667-3.069-3.503-2.046-6.164-4.819-7.989-8.317C.911 30.48 0 26.595 0 22.326c0-4.091.839-7.842 2.516-11.252 1.677-3.409 4.12-6.108 7.327-8.094C13.049.994 16.832 0 21.186 0c5.533 0 10.02 1.63 13.462 4.892 3.443 3.263 5.164 7.768 5.164 13.52 0 1.483-.117 2.907-.353 4.269H8.121c.53 5.633 2.236 9.636 5.12 12.009 2.885 2.372 6.592 3.558 11.123 3.558s8.68-.86 12.447-2.579l1.059 6.314c-5.003 2.253-9.827 3.381-14.477 3.381ZM8.828 17.167h22.775c0-3.142-.883-5.604-2.649-7.383-1.765-1.778-4.413-2.668-7.944-2.668-3.414 0-6.091.845-8.033 2.535-1.943 1.69-3.326 4.196-4.149 7.516ZM51.95 45.364c-4.001 0-7.223-1.186-9.666-3.558-2.443-2.373-3.663-5.397-3.663-9.073 0-5.515 2.588-9.457 7.768-11.83 5.18-2.373 11.211-3.618 18.097-3.736 0-3.914-.751-6.567-2.252-7.96-1.5-1.395-3.899-2.091-7.194-2.091-1.825 0-3.648.282-5.473.845-1.825.562-3.796 1.585-5.915 3.068l-1.147-6.493c1.765-1.363 3.944-2.461 6.532-3.291C51.626.416 54.334 0 57.159 0c3.707 0 6.664.652 8.871 1.957 2.207 1.306 3.825 3.469 4.856 6.493 1.03 3.025 1.544 7.176 1.544 12.453v8.894c0 2.373.104 4.166.309 5.382.206 1.216.662 2.15 1.369 2.802.706.651 1.794.979 3.266.979h.794l-1.236 6.404h-.618c-2.471 0-4.413-.238-5.826-.712-1.412-.474-2.487-1.156-3.222-2.046-.735-.89-1.428-2.106-2.074-3.646-3.648 4.269-8.062 6.404-13.242 6.404Zm1.501-6.404c2.119 0 4.164-.534 6.135-1.602a14.545 14.545 0 0 0 4.9-4.269V22.681c-6.356.238-10.903 1.084-13.639 2.536-2.737 1.452-4.105 3.809-4.105 7.071 0 2.253.603 3.93 1.81 5.026 1.207 1.096 2.84 1.646 4.899 1.646Zm37.12 6.404c-3.414 0-6.4-.401-8.96-1.201-2.56-.801-4.517-1.675-5.87-2.624l.971-7.738c1.176 1.067 2.986 2.074 5.429 3.023 2.443.951 5.135 1.424 8.077 1.424 2.765 0 4.899-.473 6.4-1.424 1.501-.949 2.251-2.283 2.251-4.002 0-2.017-.823-3.543-2.472-4.58-1.648-1.039-3.707-1.913-6.179-2.625-2.708-.712-4.988-1.467-6.841-2.268-1.854-.801-3.443-2.03-4.767-3.691-1.324-1.662-1.987-3.855-1.987-6.582 0-3.736 1.325-6.85 3.973-9.34C83.244 1.245 87.334 0 92.866 0c2.532 0 4.679.251 6.444.756a30.244 30.244 0 0 1 5.297 2.091l-.971 7.293a17.168 17.168 0 0 0-4.679-2.802c-1.706-.683-3.679-1.022-5.914-1.022-2.589 0-4.635.488-6.135 1.467-1.501.978-2.251 2.446-2.251 4.403 0 1.305.353 2.357 1.059 3.158.706.8 1.706 1.467 3.001 2.001 1.296.533 3.295 1.216 6.003 2.046 3.354 1.007 6.252 2.43 8.695 4.269 2.443 1.839 3.664 4.744 3.664 8.717 0 3.558-1.252 6.612-3.752 9.162-2.501 2.55-6.753 3.825-12.756 3.825ZM112.154 66l9.976-23.483L104.121.89h8.828l13.506 32.377L138.637.89h8.828L120.982 66h-8.828Zm39.603-18.368V.934h16.949c4.944 0 8.843 1.194 11.697 3.58 2.84 2.373 4.259 5.893 4.259 10.563 0 3.247-.684 5.908-2.052 7.983-1.369 2.061-3.311 3.713-5.827 4.959l10.461 19.613h-9.467l-8.938-17.345h-8.607v17.345h-8.475Zm8.475-24.483h6.223c6.224 0 9.335-2.535 9.335-7.605 0-2.446-.706-4.299-2.118-5.56-1.413-1.274-3.708-1.912-6.886-1.912h-6.554v15.077Zm30.764 24.483V.934h16.485c10.991 0 16.486 5.025 16.486 15.077 0 5.203-1.39 9.073-4.171 11.608-2.781 2.535-6.819 3.802-12.116 3.802h-8.21v16.211h-8.474Zm8.474-23.349h7.217c2.913 0 5.091-.667 6.532-2.002 1.428-1.334 2.141-3.379 2.141-6.137 0-2.757-.728-4.796-2.185-6.115-1.456-1.305-3.685-1.957-6.687-1.957h-7.018v16.211Zm49.369 24.283c-4.856 0-9.033-1-12.536-3.003-3.515-2.001-6.201-4.831-8.055-8.494-1.854-3.676-2.78-7.961-2.78-12.853 0-4.803 1.021-9.043 3.067-12.719 2.059-3.663 4.922-6.493 8.585-8.495C240.783 1.001 244.977 0 249.699 0c2.384 0 4.701.245 6.952.734 2.251.489 4.193 1.156 5.826 2.001l-.927 8.139c-3.84-1.779-7.79-2.669-11.851-2.669-4.943 0-8.673 1.461-11.189 4.381-2.516 2.906-3.773 6.738-3.773 11.497 0 4.936 1.235 8.888 3.707 11.852 2.472 2.951 6.047 4.425 10.726 4.425 1.898 0 4.016-.245 6.356-.733v-8.339h-6.356v-7.072H264V45.03c-1.721 1.023-3.922 1.868-6.599 2.536-2.663.667-5.517 1-8.562 1Z" style="white-space:pre;fill:#fff"/>
</svg>

<?xml version="1.0" encoding="utf-8"?>
<svg viewBox="0 0 264 66" xmlns="http://www.w3.org/2000/svg">
  <path d="M 23.393 45.364 C 18.45 45.364 14.228 44.341 10.726 42.295 C 7.223 40.249 4.562 37.476 2.737 33.978 C 0.911 30.48 0 26.595 0 22.326 C 0 18.235 0.839 14.484 2.516 11.074 C 4.193 7.665 6.636 4.966 9.843 2.98 C 13.049 0.994 16.832 0 21.186 0 C 26.719 0 31.206 1.63 34.648 4.892 C 38.091 8.155 39.812 12.66 39.812 18.412 C 39.812 19.895 39.695 21.319 39.459 22.681 L 8.121 22.681 C 8.651 28.314 10.357 32.317 13.241 34.69 C 16.126 37.062 19.833 38.248 24.364 38.248 C 28.895 38.248 33.044 37.388 36.811 35.669 L 37.87 41.983 C 32.867 44.236 28.043 45.364 23.393 45.364 Z M 8.828 17.167 L 31.603 17.167 C 31.603 14.025 30.72 11.563 28.954 9.784 C 27.189 8.006 24.541 7.116 21.01 7.116 C 17.596 7.116 14.919 7.961 12.977 9.651 C 11.034 11.341 9.651 13.847 8.828 17.167 Z M 51.95 45.364 C 47.949 45.364 44.727 44.178 42.284 41.806 C 39.841 39.433 38.621 36.409 38.621 32.733 C 38.621 27.218 41.209 23.276 46.389 20.903 C 51.569 18.53 57.6 17.285 64.486 17.167 C 64.486 13.253 63.735 10.6 62.234 9.207 C 60.734 7.812 58.335 7.116 55.04 7.116 C 53.215 7.116 51.392 7.398 49.567 7.961 C 47.742 8.523 45.771 9.546 43.652 11.029 L 42.505 4.536 C 44.27 3.173 46.449 2.075 49.037 1.245 C 51.626 0.416 54.334 0 57.159 0 C 60.866 0 63.823 0.652 66.03 1.957 C 68.237 3.263 69.855 5.426 70.886 8.45 C 71.916 11.475 72.43 15.626 72.43 20.903 L 72.43 29.797 C 72.43 32.17 72.534 33.963 72.739 35.179 C 72.945 36.395 73.401 37.329 74.108 37.981 C 74.814 38.632 75.902 38.96 77.374 38.96 L 78.168 38.96 L 76.932 45.364 L 76.314 45.364 C 73.843 45.364 71.901 45.126 70.488 44.652 C 69.076 44.178 68.001 43.496 67.266 42.606 C 66.531 41.716 65.838 40.5 65.192 38.96 C 61.544 43.229 57.13 45.364 51.95 45.364 Z M 53.451 38.96 C 55.57 38.96 57.615 38.426 59.586 37.358 C 61.557 36.291 63.19 34.868 64.486 33.089 L 64.486 22.681 C 58.13 22.919 53.583 23.765 50.847 25.217 C 48.11 26.669 46.742 29.026 46.742 32.288 C 46.742 34.541 47.345 36.218 48.552 37.314 C 49.759 38.41 51.392 38.96 53.451 38.96 Z M 90.571 45.364 C 87.157 45.364 84.171 44.963 81.611 44.163 C 79.051 43.362 77.094 42.488 75.741 41.539 L 76.712 33.801 C 77.888 34.868 79.698 35.875 82.141 36.824 C 84.584 37.775 87.276 38.248 90.218 38.248 C 92.983 38.248 95.117 37.775 96.618 36.824 C 98.119 35.875 98.869 34.541 98.869 32.822 C 98.869 30.805 98.046 29.279 96.397 28.242 C 94.749 27.203 92.69 26.329 90.218 25.617 C 87.51 24.905 85.23 24.15 83.377 23.349 C 81.523 22.548 79.934 21.319 78.61 19.658 C 77.286 17.996 76.623 15.803 76.623 13.076 C 76.623 9.34 77.948 6.226 80.596 3.736 C 83.244 1.245 87.334 0 92.866 0 C 95.398 0 97.545 0.251 99.31 0.756 C 101.076 1.261 102.841 1.957 104.607 2.847 L 103.636 10.14 C 102.223 8.955 100.663 8.021 98.957 7.338 C 97.251 6.655 95.278 6.316 93.043 6.316 C 90.454 6.316 88.408 6.804 86.908 7.783 C 85.407 8.761 84.657 10.229 84.657 12.186 C 84.657 13.491 85.01 14.543 85.716 15.344 C 86.422 16.144 87.422 16.811 88.717 17.345 C 90.013 17.878 92.012 18.561 94.72 19.391 C 98.074 20.398 100.972 21.821 103.415 23.66 C 105.858 25.499 107.079 28.404 107.079 32.377 C 107.079 35.935 105.827 38.989 103.327 41.539 C 100.826 44.089 96.574 45.364 90.571 45.364 Z M 112.154 66 L 122.13 42.517 L 104.121 0.89 L 112.949 0.89 L 126.455 33.267 L 138.637 0.89 L 147.465 0.89 L 120.982 66 L 112.154 66 Z" style="white-space: pre; fill: rgb(255, 255, 255);"/>
  <path d="M 151.757 47.632 L 151.757 0.934 L 168.706 0.934 C 173.65 0.934 177.549 2.128 180.403 4.514 C 183.243 6.887 184.662 10.407 184.662 15.077 C 184.662 18.324 183.978 20.985 182.61 23.06 C 181.241 25.121 179.299 26.773 176.783 28.019 L 187.244 47.632 L 177.777 47.632 L 168.839 30.287 L 168.508 30.287 L 160.232 30.287 L 160.232 47.632 L 151.757 47.632 Z M 160.232 23.149 L 166.455 23.149 C 172.679 23.149 175.79 20.614 175.79 15.544 C 175.79 13.098 175.084 11.245 173.672 9.984 C 172.259 8.71 169.964 8.072 166.786 8.072 L 160.232 8.072 L 160.232 23.149 Z M 190.996 47.632 L 190.996 0.934 L 207.481 0.934 C 218.472 0.934 223.967 5.959 223.967 16.011 C 223.967 21.214 222.577 25.084 219.796 27.619 C 217.015 30.154 212.977 31.421 207.68 31.421 L 199.47 31.421 L 199.47 47.632 L 190.996 47.632 Z M 199.47 24.283 L 206.687 24.283 C 209.6 24.283 211.778 23.616 213.219 22.281 C 214.647 20.947 215.36 18.902 215.36 16.144 C 215.36 13.387 214.632 11.348 213.175 10.029 C 211.719 8.724 209.49 8.072 206.488 8.072 L 199.47 8.072 L 199.47 24.283 Z M 248.839 48.566 C 243.983 48.566 239.806 47.566 236.303 45.563 C 232.788 43.562 230.102 40.732 228.248 37.069 C 226.394 33.393 225.468 29.108 225.468 24.216 C 225.468 19.413 226.489 15.173 228.535 11.497 C 230.594 7.834 233.457 5.004 237.12 3.002 C 240.783 1.001 244.977 0 249.699 0 C 252.083 0 254.4 0.245 256.651 0.734 C 258.902 1.223 260.844 1.89 262.477 2.735 L 261.55 10.874 C 257.71 9.095 253.76 8.205 249.699 8.205 C 244.756 8.205 241.026 9.666 238.51 12.586 C 235.994 15.492 234.737 19.324 234.737 24.083 C 234.737 29.019 235.972 32.971 238.444 35.935 C 240.916 38.886 244.491 40.36 249.17 40.36 C 251.068 40.36 253.186 40.115 255.526 39.627 L 255.526 31.288 L 249.17 31.288 L 249.17 24.216 L 264 24.216 L 264 45.03 C 262.279 46.053 260.078 46.898 257.401 47.566 C 254.738 48.233 251.884 48.566 248.839 48.566 Z" style="white-space: pre; fill: rgb(255, 255, 255);"/>
</svg>
